build/img/vk.svg

<svg width="16" height="16" viewBox="0 0 16 16"  xmlns="http://www.w3.org/2000/svg">
<g clip-path="url(#clip0)">
<path d="M15.9152 11.6798C15.8958 11.638 15.8777 11.6034 15.861 11.5757C15.5834 11.0757 15.0529 10.462 14.2698 9.73446L14.2533 9.7178L14.245 9.70963L14.2366 9.70125H14.2282C13.8728 9.36247 13.6478 9.13468 13.5535 9.01805C13.3811 8.79589 13.3425 8.57101 13.4367 8.34316C13.5033 8.17101 13.7534 7.80745 14.1865 7.25199C14.4143 6.95761 14.5947 6.72168 14.7279 6.54393C15.6888 5.26652 16.1053 4.45023 15.9775 4.09476L15.9279 4.01169C15.8946 3.96167 15.8085 3.91592 15.6698 3.8742C15.5308 3.83256 15.3531 3.82568 15.1365 3.85342L12.7373 3.87C12.6985 3.85622 12.643 3.85751 12.5707 3.8742C12.4985 3.89089 12.4623 3.89926 12.4623 3.89926L12.4206 3.92012L12.3874 3.94519C12.3597 3.96176 12.3291 3.99091 12.2958 4.03258C12.2626 4.0741 12.2348 4.12282 12.2127 4.17835C11.9515 4.85035 11.6545 5.47514 11.3212 6.05269C11.1157 6.39708 10.927 6.69554 10.7546 6.94825C10.5825 7.20087 10.4381 7.387 10.3215 7.50631C10.2048 7.62573 10.0995 7.72141 10.0049 7.79368C9.91046 7.86598 9.83836 7.89653 9.78844 7.88536C9.7384 7.87418 9.69128 7.8631 9.64666 7.85201C9.56896 7.802 9.50646 7.73398 9.45934 7.64791C9.41201 7.56183 9.38015 7.4535 9.36349 7.32298C9.34692 7.19238 9.33711 7.08005 9.33431 6.9856C9.33171 6.89126 9.33291 6.75783 9.33854 6.58568C9.34432 6.41344 9.34692 6.29691 9.34692 6.23581C9.34692 6.02474 9.35103 5.79566 9.35929 5.54852C9.36769 5.30138 9.37449 5.10557 9.38018 4.96131C9.38584 4.81691 9.38847 4.66414 9.38847 4.50307C9.38847 4.34201 9.37866 4.2157 9.35929 4.12402C9.34015 4.03246 9.31077 3.94358 9.27205 3.85742C9.23309 3.77135 9.17608 3.70476 9.10127 3.65749C9.02631 3.61028 8.93311 3.57282 8.82221 3.54498C8.52783 3.47837 8.15298 3.44233 7.69748 3.43673C6.66455 3.42564 6.00084 3.49235 5.70649 3.63675C5.58987 3.69776 5.48433 3.78112 5.38997 3.88657C5.28998 4.0088 5.27603 4.0755 5.34821 4.08647C5.68149 4.13639 5.91742 4.25582 6.05628 4.44463L6.10632 4.54468C6.14524 4.61687 6.18411 4.74467 6.223 4.9279C6.26184 5.11114 6.2869 5.31384 6.29793 5.53589C6.32565 5.94137 6.32565 6.28848 6.29793 6.57722C6.27012 6.86608 6.24386 7.09096 6.2188 7.25202C6.19374 7.41308 6.15627 7.5436 6.10632 7.64353C6.05628 7.7435 6.02299 7.80459 6.0063 7.82677C5.98964 7.84895 5.97575 7.86292 5.96472 7.86841C5.89253 7.89607 5.81746 7.91016 5.73975 7.91016C5.66194 7.91016 5.56757 7.87124 5.45652 7.79345C5.3455 7.71566 5.23028 7.60881 5.11085 7.47272C4.99143 7.33661 4.85674 7.1464 4.70674 6.90206C4.55685 6.65772 4.40133 6.36895 4.24027 6.03574L4.10701 5.79408C4.02371 5.63862 3.90991 5.41226 3.76551 5.1152C3.62102 4.81802 3.49331 4.53056 3.38229 4.25287C3.33791 4.13625 3.27124 4.04746 3.18239 3.98636L3.14069 3.96129C3.11297 3.93912 3.06848 3.91557 3.00744 3.89048C2.94631 3.86542 2.88253 3.84744 2.81582 3.83638L0.533257 3.85296C0.300008 3.85296 0.141747 3.9058 0.0584144 4.01133L0.0250639 4.06126C0.00840327 4.08907 0 4.13347 0 4.1946C0 4.2557 0.0166606 4.33069 0.0500111 4.41948C0.383224 5.20262 0.745586 5.95789 1.1371 6.68541C1.52861 7.41294 1.86882 7.99898 2.15754 8.44301C2.44631 8.88736 2.74066 9.30674 3.04058 9.70093C3.3405 10.0953 3.53903 10.348 3.63617 10.459C3.73342 10.5702 3.8098 10.6534 3.86533 10.7089L4.07363 10.9088C4.20692 11.0421 4.40264 11.2018 4.6609 11.3878C4.91921 11.5739 5.20518 11.7572 5.51896 11.9378C5.8328 12.1182 6.19791 12.2653 6.61448 12.3792C7.031 12.4931 7.4364 12.5388 7.83074 12.5168H8.78877C8.98307 12.5 9.13027 12.4389 9.23032 12.3334L9.26347 12.2917C9.28576 12.2585 9.30662 12.207 9.32588 12.1377C9.34537 12.0683 9.35506 11.9918 9.35506 11.9087C9.34937 11.6699 9.36755 11.4547 9.40909 11.2631C9.45061 11.0716 9.49794 10.9272 9.55087 10.8299C9.60377 10.7328 9.66347 10.6508 9.72991 10.5843C9.79649 10.5177 9.84394 10.4774 9.87177 10.4635C9.89943 10.4495 9.92152 10.44 9.93818 10.4343C10.0715 10.3899 10.2283 10.4329 10.409 10.5636C10.5895 10.6941 10.7588 10.8552 10.9172 11.0467C11.0755 11.2384 11.2657 11.4535 11.4878 11.6923C11.71 11.9311 11.9044 12.1087 12.0709 12.2255L12.2375 12.3254C12.3487 12.3921 12.4931 12.4532 12.6708 12.5088C12.8483 12.5643 13.0037 12.5781 13.1372 12.5504L15.2698 12.5171C15.4807 12.5171 15.6448 12.4822 15.7612 12.4129C15.8779 12.3435 15.9472 12.267 15.9695 12.1838C15.9918 12.1006 15.993 12.0061 15.9738 11.9005C15.954 11.7951 15.9346 11.7214 15.9152 11.6798Z"/>
</g>
<defs>
<clipPath id="clip0">
<rect width="16" height="16" fill="white"/>
</clipPath>
</defs>
</svg>

<svg width="16" height="16" xmlns="http://www.w3.org/2000/svg"><g clip-path="url(#clip0)"><path d="M15.915 11.68a1.108 1.108 0 00-.054-.104c-.278-.5-.808-1.114-1.591-1.842l-.017-.016-.008-.008-.008-.009h-.009c-.355-.339-.58-.566-.675-.683-.172-.222-.21-.447-.116-.675.066-.172.316-.536.75-1.091.227-.294.408-.53.54-.708.962-1.277 1.378-2.094 1.25-2.45l-.05-.082c-.032-.05-.118-.096-.257-.138a1.312 1.312 0 00-.534-.02l-2.399.016a.311.311 0 00-.166.004l-.109.025-.041.021-.034.025a.37.37 0 00-.091.088.569.569 0 00-.083.145 13.603 13.603 0 01-.892 1.875c-.205.344-.394.643-.566.895a4.302 4.302 0 01-.434.558 3.02 3.02 0 01-.316.288c-.095.072-.167.103-.217.091a6.126 6.126 0 01-.141-.033.554.554 0 01-.188-.204.914.914 0 01-.096-.325 3.582 3.582 0 01-.029-.337 7.047 7.047 0 01.005-.4c.005-.173.008-.29.008-.35 0-.211.004-.44.012-.687l.021-.588c.006-.144.008-.297.008-.458 0-.161-.01-.287-.029-.379a1.297 1.297 0 00-.087-.267.449.449 0 00-.17-.2.963.963 0 00-.28-.112 5.543 5.543 0 00-1.125-.108c-1.032-.011-1.696.055-1.99.2a1.122 1.122 0 00-.317.25c-.1.122-.114.188-.042.2.333.05.57.169.708.358l.05.1c.04.072.078.2.117.383.039.183.064.386.075.608.028.405.028.752 0 1.041-.028.29-.054.514-.08.675a1.351 1.351 0 01-.212.575.143.143 0 01-.041.041.624.624 0 01-.225.042c-.078 0-.172-.039-.283-.117a1.999 1.999 0 01-.346-.32 4.287 4.287 0 01-.404-.57 9.957 9.957 0 01-.467-.867l-.133-.242a20.783 20.783 0 01-.341-.679 13.089 13.089 0 01-.384-.862.55.55 0 00-.2-.267l-.041-.025a.884.884 0 00-.325-.125l-2.283.017c-.233 0-.391.053-.475.158l-.033.05A.27.27 0 000 4.195c0 .06.017.136.05.224a27.49 27.49 0 001.087 2.266 25.46 25.46 0 001.02 1.758c.29.444.584.864.884 1.258.3.394.498.647.595.758.097.111.174.194.23.25l.208.2c.133.133.329.293.587.479.258.186.544.37.858.55.314.18.679.327 1.095.441.417.114.822.16 1.217.138h.958c.194-.017.341-.078.441-.184l.033-.041a.554.554 0 00.063-.154c.02-.07.03-.146.03-.23a2.746 2.746 0 01.053-.645c.042-.191.089-.336.142-.433a1.067 1.067 0 01.32-.367.543.543 0 01.067-.029c.133-.044.29-.001.471.13.18.13.35.291.508.483.159.191.349.406.57.645.223.24.417.417.584.534l.167.1c.11.066.255.127.433.183.177.055.333.07.466.041l2.133-.033c.21 0 .375-.035.491-.104.117-.07.186-.146.209-.23a.645.645 0 00.004-.283 1.065 1.065 0 00-.059-.22z"/></g><defs><clipPath id="clip0"><path fill="#fff" d="M0 0h16v16H0z"/></clipPath></defs></svg>
